icons/tunein.svg

<?xml version="1.0" encoding="UTF-8"?>
<svg width="512px" height="225px" viewBox="0 0 512 225" version="1.1" xmlns="http://www.w3.org/2000/svg" xmlns:xlink="http://www.w3.org/1999/xlink" preserveAspectRatio="xMidYMid">
    <title>path-1</title>
    <g stroke="none" stroke-width="1" fill="none" fill-rule="evenodd">
        <path d="M512,7.66080003 L512,165.984 C512,170.215316 508.559361,173.644801 504.320001,173.644801 L327.680001,173.644801 L327.680001,217.056 C327.680001,221.287316 324.241921,224.716801 320,224.716801 L7.68000002,224.716801 C3.43808001,224.716801 0,221.287316 0,217.056 L0,58.7328002 C0,54.5040386 3.43808001,51.0720001 7.68000002,51.0720001 L312.320001,51.0720001 L312.320001,7.66080003 C312.320001,3.42948481 315.760641,0 320,0 L504.320001,0 C508.559361,0 512,3.42948481 512,7.66080003 Z M461.404161,53.1148803 C461.404161,51.9887427 460.48256,51.0720001 459.358721,51.0720001 L449.11872,51.0720001 C447.992321,51.0720001 447.07072,51.9887427 447.07072,53.1148803 L447.07072,91.5133633 C447.07072,92.1262275 446.353923,92.3305153 446.14912,91.7176515 L432.122882,52.9105921 C431.815683,51.9887427 431.098882,51.0720001 429.56288,51.0720001 L417.379843,51.0720001 C416.256,51.0720001 415.331843,51.9887427 415.331843,53.1148803 L415.331843,120.517152 C415.331843,121.640736 416.256,122.560032 417.379843,122.560032 L427.617283,122.560032 C428.74624,122.560032 429.665279,121.640736 429.665279,120.517152 L429.665279,85.1804356 C429.665279,84.5675713 430.382081,84.3658368 430.58688,84.9761473 L444.513283,120.823584 C444.817921,121.640736 445.534722,122.560032 447.275519,122.560032 L459.358721,122.560032 C460.48256,122.560032 461.404161,121.640736 461.404161,120.517152 L461.404161,53.1148803 Z M403.96032,110.813472 C403.96032,109.692442 403.041281,108.773146 401.91232,108.773146 L393.210881,108.773146 C392.596481,108.773146 392.186881,108.367123 392.186881,107.751706 L392.186881,65.8803267 C392.186881,65.2674624 392.596481,64.856333 393.210881,64.856333 L400.890881,64.856333 C402.014719,64.856333 402.93632,63.9395907 402.93632,62.8160065 L402.93632,53.1148803 C402.93632,51.9887427 402.014719,51.0720001 400.890881,51.0720001 L369.152001,51.0720001 C368.025601,51.0720001 367.101441,51.9887427 367.101441,53.1148803 L367.101441,62.8160065 C367.101441,63.9395907 368.025601,64.856333 369.152001,64.856333 L376.829441,64.856333 C377.443841,64.856333 377.853441,65.2674624 377.853441,65.8803267 L377.853441,107.751706 C377.853441,108.367123 377.443841,108.773146 376.829441,108.773146 L368.128001,108.773146 C367.001601,108.773146 366.080001,109.692442 366.080001,110.813472 L366.080001,120.517152 C366.080001,121.640736 367.001601,122.560032 368.128001,122.560032 L401.91232,122.560032 C403.041281,122.560032 403.96032,121.640736 403.96032,120.517152 L403.96032,110.813472 Z M312.320001,66.3936 L16.6400001,66.3936 C15.9334401,66.3936 15.36,66.96816 15.36,67.6704001 L15.36,208.118401 C15.36,208.823194 15.9334401,209.395201 16.6400001,209.395201 L311.040001,209.395201 C311.746561,209.395201 312.320001,208.823194 312.320001,208.118401 L312.320001,66.3936 Z M266.944001,159.334426 C268.070401,159.334426 268.992001,160.253722 268.992001,161.377306 L268.992001,171.589153 C268.992001,172.712736 268.070401,173.632032 266.944001,173.632032 L229.370881,173.632032 C228.24448,173.632032 227.322881,172.712736 227.322881,171.589153 L227.322881,104.18688 C227.322881,103.060743 228.24448,102.144 229.370881,102.144 L266.534401,102.144 C267.660801,102.144 268.582401,103.060743 268.582401,104.18688 L268.582401,114.398727 C268.582401,115.522311 267.660801,116.441607 266.534401,116.441607 L242.68032,116.441607 C242.065921,116.441607 241.653761,116.850183 241.653761,117.463047 L241.653761,129.717773 C241.653761,130.330637 242.065921,130.739213 242.68032,130.739213 L265.715201,130.739213 C266.841601,130.739213 267.763201,131.658509 267.763201,132.782093 L267.763201,142.993939 C267.763201,144.120077 266.841601,145.03682 265.715201,145.03682 L242.68032,145.03682 C242.065921,145.03682 241.653761,145.445396 241.653761,146.05826 L241.653761,158.312986 C241.653761,158.92585 242.065921,159.334426 242.68032,159.334426 L266.944001,159.334426 Z M213.903361,102.144 C215.0272,102.144 215.948801,103.060743 215.948801,104.18688 L215.948801,171.589153 C215.948801,172.712736 215.0272,173.632032 213.903361,173.632032 L201.820161,173.632032 C200.07936,173.632032 199.362561,172.712736 199.05792,171.895584 L185.131521,136.048147 C184.926721,135.437837 184.209921,135.639571 184.209921,136.252436 L184.209921,171.589153 C184.209921,172.712736 183.290881,173.632032 182.16192,173.632032 L171.92448,173.632032 C170.80064,173.632032 169.87648,172.712736 169.87648,171.589153 L169.87648,104.18688 C169.87648,103.060743 170.80064,102.144 171.92448,102.144 L184.107521,102.144 C185.64608,102.144 186.36032,103.060743 186.66752,103.982592 L200.69376,142.789652 C200.901121,143.402515 201.615361,143.198228 201.615361,142.585364 L201.615361,104.18688 C201.615361,103.060743 202.536961,102.144 203.66336,102.144 L213.903361,102.144 Z M156.14976,102.144 C157.278721,102.144 158.197761,103.060743 158.197761,104.18688 L158.197761,152.186899 C158.197761,164.54377 147.96032,174.755616 133.82912,174.755616 C119.90784,174.755616 109.66784,164.54377 109.66784,152.186899 L109.66784,104.18688 C109.66784,103.060743 110.58944,102.144 111.7184,102.144 L122.05824,102.144 C123.18208,102.144 124.10624,103.060743 124.10624,104.18688 L124.10624,152.186899 C124.10624,156.678682 127.79008,160.355866 133.82912,160.355866 C140.07808,160.355866 143.76192,156.678682 143.76192,152.186899 L143.76192,104.18688 C143.76192,103.060743 144.683521,102.144 145.80992,102.144 L156.14976,102.144 Z M99.8323204,104.18688 L99.8323204,114.398727 C99.8323204,115.522311 98.9107203,116.441607 97.7843202,116.441607 L84.9868803,116.441607 C84.3724802,116.441607 83.9628801,116.850183 83.9628801,117.463047 L83.9628801,171.589153 C83.9628801,172.712736 83.0387203,173.632032 81.9148803,173.632032 L71.6774403,173.632032 C70.5510402,173.632032 69.6294401,172.712736 69.6294401,171.589153 L69.6294401,117.463047 C69.6294401,116.850183 69.21984,116.441607 68.60544,116.441607 L55.8080001,116.441607 C54.6790402,116.441607 53.7600003,115.522311 53.7600003,114.398727 L53.7600003,104.18688 C53.7600003,103.060743 54.6790402,102.144 55.8080001,102.144 L97.7843202,102.144 C98.9107203,102.144 99.8323204,103.060743 99.8323204,104.18688 Z" fill="#14D8CC"></path>
    </g>
</svg>

<svg xmlns="http://www.w3.org/2000/svg" viewBox="0 0 512 224.717">
  <path fill="#14d8cc" fill-rule="evenodd" d="M512 7.66v158.324c0 4.231-3.44 7.66-7.68 7.66H327.68v43.412c0 4.231-3.438 7.66-7.68 7.66H7.68c-4.242 0-7.68-3.429-7.68-7.66V58.733c0-4.229 3.438-7.661 7.68-7.661h304.64V7.661C312.32 3.429 315.76 0 320 0h184.32c4.24 0 7.68 3.43 7.68 7.66zm-50.596 45.455a2.05 2.05 0 0 0-2.045-2.043h-10.24a2.05 2.05 0 0 0-2.048 2.043v38.398c0 .613-.717.818-.922.205L432.123 52.91c-.307-.922-1.024-1.839-2.56-1.839H417.38a2.051 2.051 0 0 0-2.048 2.043v67.402c0 1.124.924 2.043 2.048 2.043h10.237a2.05 2.05 0 0 0 2.048-2.043V85.18c0-.612.717-.814.922-.204l13.926 35.848c.305.817 1.022 1.736 2.763 1.736h12.083a2.05 2.05 0 0 0 2.045-2.043zm-57.444 57.698a2.05 2.05 0 0 0-2.048-2.04h-8.701c-.615 0-1.024-.406-1.024-1.021V65.88c0-.613.41-1.024 1.024-1.024h7.68a2.049 2.049 0 0 0 2.045-2.04v-9.701a2.05 2.05 0 0 0-2.045-2.043h-31.739c-1.126 0-2.05.917-2.05 2.043v9.701c0 1.124.924 2.04 2.05 2.04h7.677c.615 0 1.024.411 1.024 1.024v41.872c0 .615-.41 1.021-1.024 1.021h-8.701a2.05 2.05 0 0 0-2.048 2.04v9.704c0 1.124.922 2.043 2.048 2.043h33.784a2.05 2.05 0 0 0 2.048-2.043zm-91.64-44.42H16.64a1.28 1.28 0 0 0-1.28 1.277v140.448c0 .705.573 1.277 1.28 1.277h294.4c.707 0 1.28-.572 1.28-1.277zm-45.376 92.941c1.126 0 2.048.92 2.048 2.043v10.212a2.051 2.051 0 0 1-2.048 2.043h-37.573a2.051 2.051 0 0 1-2.048-2.043v-67.402a2.05 2.05 0 0 1 2.048-2.043h37.163a2.05 2.05 0 0 1 2.048 2.043v10.212a2.051 2.051 0 0 1-2.048 2.043H242.68c-.614 0-1.026.408-1.026 1.021v12.255c0 .613.412 1.021 1.026 1.021h23.035c1.127 0 2.048.92 2.048 2.043v10.212a2.05 2.05 0 0 1-2.048 2.043H242.68c-.614 0-1.026.408-1.026 1.021v12.255c0 .613.412 1.021 1.026 1.021zm-53.04-57.19a2.05 2.05 0 0 1 2.045 2.043v67.402a2.05 2.05 0 0 1-2.046 2.043H201.82c-1.74 0-2.457-.92-2.762-1.736l-13.926-35.848c-.205-.61-.922-.408-.922.204v35.337a2.05 2.05 0 0 1-2.048 2.043h-10.238a2.053 2.053 0 0 1-2.048-2.043v-67.402c0-1.126.925-2.043 2.048-2.043h12.184c1.538 0 2.252.917 2.56 1.839l14.026 38.807c.207.613.921.408.921-.205v-38.398a2.05 2.05 0 0 1 2.048-2.043zm-57.754 0c1.129 0 2.048.917 2.048 2.043v48c0 12.357-10.238 22.569-24.369 22.569-13.921 0-24.161-10.212-24.161-22.57v-48a2.05 2.05 0 0 1 2.05-2.042h10.34c1.124 0 2.048.917 2.048 2.043v48c0 4.492 3.684 8.169 9.723 8.169 6.25 0 9.933-3.677 9.933-8.17v-48a2.05 2.05 0 0 1 2.048-2.042zm-56.318 2.043v10.212a2.051 2.051 0 0 1-2.048 2.043H84.987c-.615 0-1.024.408-1.024 1.021v54.126a2.053 2.053 0 0 1-2.048 2.043H71.677a2.051 2.051 0 0 1-2.048-2.043v-54.126c0-.613-.41-1.021-1.024-1.021H55.808a2.05 2.05 0 0 1-2.048-2.043v-10.212c0-1.126.919-2.043 2.048-2.043h41.976a2.05 2.05 0 0 1 2.048 2.043z"/>
</svg>
